!!!!SEGMENT: pl-kk--kk-i-382--095-004_richling--msza-na-3-glosy-sanctus.krn
!!!id: 18xx:1616
!!!COM: Richling
!!!COM-rism: pe50045950
!!!CDT:
!!!CNT:
!!!OTL: Msza na 3 głosy – Sanctus
!!!PDT:
!!!SMS-siglum: PL-Kk
!!!SMS-shelfmark: Kk.I.382
!!!NIFC-rismID: 1001142973
!!!URL-scan: http://repozytorium.nifc.pl/skany/pl-kk-nut--i-382
!!!ONB-nifc: S/T1 0066, A/B1 0209, B2 0282-0283. Części Mszy: 1. Requiem, 2. Dies irae, 3. Offertorium, 4. Sanctus, 5. Benedictus, 6. Agnus, 7. Graduale, 8. Offertorium
!!!SMS-variant:
!!!SMS-altvar:
**kern	**text	**kern	**text	**kern	**text
*part3	*part3	*part2	*part2	*part1	*part1
*staff3	*staff3	*staff2	*staff2	*staff1	*staff1
*I"Basso II	*	*I"Alto vel Basso I	*	*I"Soprano vel Tenore I	*
*I'B II	*	*I'A/B I	*	*I'S/T I	*
*	*	*	*	*ITrd7c12	*
*clefF4	*	*clefF4	*	*clefG2	*
*k[b-e-a-]	*	*k[b-e-a-]	*	*k[b-e-a-]	*
*M4/4	*	*M4/4	*	*M4/4	*
*met(c)	*	*met(c)	*	*met(c)	*
=1	=1	=1	=1	=1	=1
*	*	*2\right	*	*	*
!	!	!	!	!LO:SIC:o:s:v:t=all\right	!
!	!	!LO:TX:a:t=Maestoso	!	!LO:TX:a:t=Maestoso	!
1E-\	Sanc-	2G\	Sanc-	4r	.
.	.	.	.	(4B-\	Sanc-
.	.	2G\	-tus	4c\)	.
.	.	.	.	4B-\	-tus
=2	=2	=2	=2	=2	=2
1C/	-tus	4r	.	[1e-/	Sanc-
.	.	(4G\	Sanc-	.	.
.	.	4A-\	.	.	.
.	.	4G\)	.	.	.
=3	=3	=3	=3	=3	=3
(1A-\	Sanc-	(2c\	.	4e-\]	.
.	.	.	.	(4e\	.
.	.	(2c-\)	.	4f\	.
.	.	.	.	4d\	.
=4	=4	=4	=4	=4	=4
4G\)	.	4B-\	.	4e-\)	tus
*	*	*	*	*2\right	*
4E-\	-tus	4G\)	-tus	(2B-\	Sanc-
4D\	Sanc-	(4A-\	Sanc-	.	.
4E-\	-tus	8G\L	.	8B-\L	.
.	.	8G-X\J)	.	8c\J	.
!	!	!LO:LB:g=original	!	!LO:LB:g=original	!
=5	=5	=5	=5	=5	=5
*2/left	*	*	*	*	*
2BB-/	Do-	4F\	-tus	4d\)	-tus
.	.	4r	.	4r	.
*	*	*2/right	*	*	*
4BB-/	-mi-	4D/	Do-	4F/	Do-
4BB-/	-nus	8C#X/L	-mi-	8E/L	-mi-
.	.	8D/J	-nus	8F/J	-nus
!LO:LB:g=original	!	!	!	!	!
=6	=6	=6	=6	=6	=6
4AAn/	De-	4E-X\	De-	4G-X/	De-
4BB-/	-us	4D\	-us	4F/	-us
4r	.	4r	.	[2B-\	Sa-
4D\	Sa-	(4A-X\	Sa-	.	.
=7	=7	=7	=7	=7	=7
*2\right	*	*	*	*	*
2E-\	-ba-	4G\	.	4.B-\]	.
.	.	4F#X\	.	.	.
.	.	.	.	8A/	.
2E-\	.	2G\)	ba-	4B-\	.
.	.	.	.	4c\	-ba-
=8	=8	=8	=8	=8	=8
4D\	-oth	4F#X\	-oth	4d\	-oth
4r	.	4r	.	4r	.
4r	.	4r	.	4r	.
4D\	Ple-	4F#\	Ple-	4A/	Ple-
!	!	!	!	!LO:LB:g=original	!
=9	=9	=9	=9	=9	=9
4D\	-ni	4F#X\	-ni	4A/	-ni
4D\	sunt	4En\	sunt	4G/	sunt,
!	!	!LO:LB:g=original	!	!	!
4D\	coe-	4F#\	coe-	4A/	coe-
8D\	-li	8G\	-li	8B-\	-li
8D\	et	8A-\	et	8c\	et,
=10	=10	=10	=10	=10	=10
(4G\	ter-	2.G\	ter-	2.B-\	ter-
4F\)	.	.	.	.	.
(4E-\	-ra	.	.	.	.
4D\)	.	4A-\	-ra	4B-\	-ra
!LO:LB:g=original	!	!	!	!	!
=11	=11	=11	=11	=11	=11
2E-\	ple-	(4G\	ple-	4B-\	ple-
.	.	4F#X\)	.	4A/	-ni-
4E-\	-ni	4G\	-ni	4B-\	-ni
4E-\	sunt	(8A-\L	sunt	(8c\	sunt
.	.	8B-\)J	.	8d-X\)	.
=12	=12	=12	=12	=12	=12
(4A-\	coe-	2.A-\	coe-	1c/	coe-
4G\)	.	.	.	.	.
4F\	-li	.	.	.	.
4E-\	et	4G\	-li	.	.
=13	=13	=13	=13	=13	=13
1D-X\	ter-	1F\	et	(4f\	.
.	.	.	.	4d-X\)	.
.	.	.	.	4A-/	-li
.	.	.	.	4B-\	et
!	!	!	!	!LO:LB:g=original	!
=14	=14	=14	=14	=14	=14
4AA-/	-ra	4F\	ter-	(4.c\	ter-
4r	.	4F-X\	-ra	.	.
.	.	.	.	8d-X\)	.
(4AA-/	et	2E-\	sunt	4c\	-ra
4AAn/)	.	.	.	4F/	sunt,
!	!	!LO:LB:g=original	!	!	!
=15	=15	=15	=15	=15	=15
1BB-/	ter-	(1D-X\	coe-	(4d-X\	coe-
.	.	.	.	4B-\)	.
.	.	.	.	4F/	-lo
.	.	.	.	4G/	et,
=16	=16	=16	=16	=16	=16
4FF/	-ra	4D\)	-li	(4.A-/	ter-
4r	.	4C/	et	.	.
.	.	.	.	8B-/)	.
4D-X\	glo-	4F\	ter-	4A-/	-rae
4C/	-ri-	4E-\	-ra	4A-/	glo-
!LO:PB:g=original	!	!	!	!	!
=17	=17	=17	=17	=17	=17
*2/left	*	*	*	*	*
2BBn/	-a	2D\	glo-	4A-/	.
*	*	*	*	*2/left	*
.	.	.	.	2G/	-ri-
(4C/	tu-	4En\	-ri-	.	.
4BB-X/)	.	4E\	-a	4d-X\	-a
=18	=18	=18	=18	=18	=18
2AAn/	-a	4F\	tu-	2c\	tu-
.	.	(4E-X\	-a	.	.
4BB-/	glo-	8E-\L)	.	4F/	-a
.	.	(8D\J	glo-	.	.
4AA-X/	-ri-	8E-\L	.	(4c-X\	glo-
.	.	8F\J)	.	.	.
!	!	!	!	!LO:LB:g=original	!
=19	=19	=19	=19	=19	=19
(4GG/	-a	8BB-\L	.	(4.B-\)	.
.	.	8E-\J	.	.	.
4E-\)	.	4G\	.	.	.
.	.	.	.	8c\)	.
(4D\	tu-	4F\	-ri-	4.B-\	-ri-
4C/)	.	4E-\	-a	.	.
.	.	.	.	8A/	-a
!	!	!LO:LB:g=original	!	!	!
=20	=20	=20	=20	=20	=20
(2BB-/	-a	(8D\L	tu-	(4B-\	tu-
.	.	8F\J	.	.	.
.	.	2A-X\)	.	2c\)	.
4C/	.	.	.	.	.
4D\)	.	4A-\	-a	4B-\	-a
=21	=21	=21	=21	=21	=21
1E-\	Sanc-	2G\	Sanc-	4r	.
.	.	.	.	(4B-\	Sanc-
.	.	2G\	-tus	4c\)	.
.	.	.	.	4B-\	-tus
=22	=22	=22	=22	=22	=22
1C/	-tus	4r	.	(1e-/	Sanc-
.	.	(4G\	Sanc-	.	.
.	.	4A-\)	.	.	.
.	.	4G\	-ctus	.	.
=23	=23	=23	=23	=23	=23
4r	.	(2c\	Sanc-	2e-\	.
(4AA-/	Sanc-	.	.	.	.
4BB-/	.	4G\)	.	4d-X\)	.
4AA-/)	.	4A-\	-tus	4c\	-tus
!LO:LB:g=original	!	!	!	!	!
=24	=24	=24	=24	=24	=24
1D-X\	-tus	2.F\	Do-	(4c\	Do-
.	.	.	.	4B-\)	.
.	.	.	.	4A/	-mi-
.	.	4G\	-mi-	4B-\	-nus
!	!	!	!	!LO:LB:g=original	!
=25	=25	=25	=25	=25	=25
4r	.	2A-\	-nus	2c\	De-
4C/	Sanc-	.	.	.	.
4D-X/	.	(<2G\	De-	[2B-\	-us
4C/	.	.	.	.	.
!	!	!LO:LB:g=original	!	!	!
=26	=26	=26	=26	=26	=26
[1F\	-tus	4G\)	.	4B-\]	.
.	.	4F\	-us	(4A-/	Sa-
.	.	4G\	Sa-	4B-\)	.
.	.	4A-\	-ba-	4c\	-ba-
=27	=27	=27	=27	=27	=27
4F\]	.	(2B-\	-oth	(2d-X\	-oth
4En\	Do-	.	.	.	.
4F\	-mi-	2A-\)	.	2c\)	.
4G\	-nus	.	.	.	.
=28	=28	=28	=28	=28	=28
4A-\	De-	2r	.	2r	.
4F\	-us	.	.	.	.
4C/	Sa-	[2A-\	Ho-	2c\	Ho-
4D\	-ba-	.	.	.	.
=29	=29	=29	=29	=29	=29
4E-\	-oth	2A-\]	san-	2B-\	-san-
4D\	Ho-	.	.	.	.
4E-\	-san-	2G\	-na	2B-\	-na
4F\	-na	.	.	.	.
!LO:LB:g=original	!	!	!	!	!
=30	=30	=30	=30	=30	=30
4G\	in	2r	.	2r	.
4E-\	ex-	.	.	.	.
4BB-/	-cel-	2G\	Ho-	2B-\	Ho-
4C/	-sis	.	.	.	.
=31	=31	=31	=31	=31	=31
4D\	in	2G\	-san-	2A-/	-san-
4C/	ex-	.	.	.	.
(4D\	-cel-	2F\	-na	2A-/	-na
4E-\)	.	.	.	.	.
!!pagebreak:original
=32	=32	=32	=32	=32	=32
4G\	-sis	2r	.	2r	.
(>4BB-/	Ho-	.	.	.	.
4C-X/	.	2F\	Ho-	2A-/	Ho-
4BB-/)	.	.	.	.	.
!	!	!	!	!LO:LB:g=original	!
=33	=33	=33	=33	=33	=33
1E-\	-san-	(4E-\	-san-	(4G/	-san-
.	.	4G\)	.	4B-\	.
.	.	(4F#X\	-na	4c\	.
.	.	4G\)	.	4B-\)	.
!	!	!LO:LB:g=original	!	!	!
=34	=34	=34	=34	=34	=34
1C/	-na	4r	.	2e-\	-na
.	.	4G\	Ho-	.	.
.	.	(4A-\	-san-	4r	.
.	.	4G\)	.	4e-\	Ho-
=35	=35	=35	=35	=35	=35
4r	.	2G-X\	-na	4A/	-san-
(>4C-X/	in	.	.	4A/	-na
4D-X/)	.	4r	.	4r	.
4C-/	ex-	4F#X\	in	4A/	Ho-
!LO:LB:g=original	!	!	!	!	!
=36	=36	=36	=36	=36	=36
(4BB-/	-cel-	2Gn\	ex-	(2.B-\	-san-
4E-\	.	.	.	.	.
4D\	.	(8A-\L	-cel-	.	.
.	.	8F\J	.	.	.
4E-\)	.	4G\)	.	8B-\L	.
.	.	.	.	8c\J)	.
=37	=37	=37	=37	=37	=37
1BB-/	-sis	4F\	-sis	2d\	-na
.	.	(8B-\L	Ho-	.	.
.	.	8A-\J)	.	.	.
.	.	4G\	-san-	4r	.
.	.	4F\	-na	4d\	Ho-
=38	=38	=38	=38	=38	=38
2C/	in	(4E-\	in	2.e-\	-san-
.	.	4G\)	.	.	.
2AA-/	ex-	(4c\	ex-	.	.
.	.	4A-\)	.	4c\	-na
!	!	!LO:LB:g=original	!	!LO:LB:g=original	!
=39	=39	=39	=39	=39	=39
1BB-/	-cel-	(4.F\	-cel-	4A-/	in
.	.	.	.	4G/	ex-
.	.	8E-\	.	.	.
.	.	8D\L	.	(4F/	-cel-
.	.	8C\J	.	.	.
.	.	8D\L	.	4B-\)	.
.	.	8A-\J)	.	.	.
=40	=40	=40	=40	=40	=40
1E-/ 1EE-/	-sis	1G\	-sis	1B-/	-sis
==	==	==	==	==	==
*-	*-	*-	*-	*-	*-
!!!system-decoration: [(s1,s2,s3)]
!!!RDF**kern: > = above
!!!RDF**kern: < = below
!!!EED: Leszek Kubiak
!!!EST: 2021-03-29
!!!ENC:Berenika Jozajtis
!!!END:2021-03-07
